resources/svg/regular/memory-card.svg

<svg xmlns="http://www.w3.org/2000/svg" fill="currentColor" stroke="none" viewBox="0 0 24 24"><path d="M4 4v16c0 1.103.897 2 2 2h12c1.103 0 2-.897 2-2V8a.997.997 0 0 0-.293-.707l-5-5A.996.996 0 0 0 14 2H6c-1.103 0-2 .897-2 2zm14 4.414L18.001 20H6V4h7.586L18 8.414z"/><path d="M8 6h2v4H8zm4 0h2v4h-2z"/></svg>

<svg xmlns="http://www.w3.org/2000/svg" fill="currentColor" stroke="none" viewBox="0 0 24 24"><path d="M4,4v16c0,1.103,0.897,2,2,2h12c1.103,0,2-0.897,2-2V8c0-0.265-0.105-0.52-0.293-0.707l-5-5C14.52,2.105,14.266,2,14,2H6 C4.897,2,4,2.897,4,4z M18,8.414L18.001,20H6V4h7.586L18,8.414z"/><path d="M8 6H10V10H8zM12 6H14V10H12z"/></svg>
